X: 15878
T: Graf Spee, The
R: reel
M: 4/4
K: Cmajor
E2CD E~G3|AGcG AGcG|~E2CD E~G3|~A2 GE EDD2|
E2CD E~G3|AGcG AGcG|EDCD E ~G3|AGcG ED D2||
efed cBcA|G~E3 GAcd|efed cBcA|GECD EDD2|
efed cBcA|G~ced cAAG|~a3 g efed|cAGE EDD2||
|:egg^f gedg|eaag a3g|efed cBcd|edag egdg:|
|:eccB cAGE|GAcd cAGE|GAcd ecdc|AGcG EDD2:|
egcg egcg|fada fada|egcg egcA|GAcd edde|
a2af gefd|ecdB cAGE|GAcd ecdc|AGcG EDD2||

